X: 37561
T: Smash The Windows
R: jig
M: 6/8
K: Dmajor
|:DED F2A|d2f edA|G2B F2A|E2F GFE|
DED F2A|d2f edA|Bgf edc|1 d3 dAF:|2 d3 efg||
a2f d2e|f2g agf|g2e =cBc|e2f gfe|
a2f d2e|f2g agf|egf edc|d3 efg|
a2f d2e|f2g agf|g2e =c2d|e2f gfe|
fed gfe|agf bag|egf edc|d3 dAF||

